!!!OTL: Waldvögelein (63a), S. 192
!!!id: T0210
**kern
*clefG2
*k[f#]
*G:
{8d
=1
4b
8a
8g
8f#
8g
=2
8b
4a}
4r
=3
{8d
=4
8cc
8b
8a
8ee
8dd
8cc
=5
8b}
4.r
=6
{8b
8dd
=7
8dd
8cc
8b
8b
8a
8g
=8
4a
8cc
4ee}
=9
{8ee
=10
4dd
8dd
8dd
8cc
8a
=11
4g}
4r
=12
{8b
8dd
=13
8dd
8cc
8b
8b
8a
8g
=14
4a
8cc
4ee}
=15
{8ee
=16
4dd
8dd
8dd
8cc
8a
=17
4g}
4.r
==
*-
!!!minrhy: 8
!!!meters: 6/8 ]  ZZ[6
!!!cut: Waldvögelein (63a), S. 192
!!!reg: Luxemburg
!!!trd: Singendes Volk, Esch-Alzette 1937 posth.
!!!rhy1: X  X_XXXX  XX_0_
!!!rhy2: X  XXXXXX  X0_.
!!!key: T0210  08  G 6/8 ]  ZZ[6
!!!mod: HEPTATONIK IONISCH]  AMBITUS[9
!!!kad: 236161
!!!akz: 313_463_5326_551_5326_551_
!!!fot: 'a__b__c__d__c__d__
!!!for: 'a__b__bw_aw_bw_aw_
!!!fok: '~a_^a_~a_\__~a_\__
!! PHRAS[AUFTAKTIG]
!!!fkt: Liebeslieder
!!!bem: StraPen, fff Witry, 17.1.1933
!! THILL, Mathias:
!! PR[24] 2K[2] 2G[5] 3K[0] 3G[7] 4A[12] 4Ü[0] 5A[0] 6K[0] 6G[0]
!! 7K[2] 7G[0] 8A[0] MEHR[0] SI[29] ABS[42] SR[7] SP[21]
!! ST[10] 2k[7] 2g[29] 3k[7] 3g[2] 4d[0] 4ü[0] 5d[2] 6k[0] 6g[0]
!! 7k[0] 7g[0] 8d[0] mehr[0] si[48] dm[-19] sr[36] sp[12]
!! 1F[84] 2F[10] 3F[0] 4F[0] LF[0] 2P[6] 3P[0] 4P[0] TRI[0] DF[3] AB[49]
!! TF[0] U3K[0] U3[0] U4[0] U4Ü[0] U5[5] U6K[0] U6[0] U7K[0] U7[2]
!! N1[19] N2K[0] N2[16] N3K[0] N3[19] N4[12] N4Ü[0] N5[19] N6K[0] N6[9]
!!!n7k: 0] N7[0] O1[0] O2K[0] O2[0] O3K[0] O3[0] HÖ[0
